icon/lg/nuxt-icon.svg

<?xml version="1.0" encoding="UTF-8"?>
<svg viewBox="0 0 256 172" version="1.1" xmlns="http://www.w3.org/2000/svg" xmlns:xlink="http://www.w3.org/1999/xlink" preserveAspectRatio="xMidYMid" height="1em" width="1em">
  <g>
    <path d="M112.973416,9.2496789 C105.800602,-3.0832263 87.8689954,-3.0832263 80.6961815,9.2496789 L2.52446046,143.659628 C-4.64826776,155.992961 4.3176211,171.408985 18.6631204,171.408985 L79.688321,171.408985 C73.5584906,166.051862 71.2883417,156.784087 75.9271555,148.832569 L135.130926,47.3479175 L112.973416,9.2496789 Z" fill="#80EEC0"/>
    <path d="M162.504638,38.7329166 C168.440863,28.6423189 183.280784,28.6423189 189.217009,38.7329166 L253.910685,148.704498 C259.84691,158.795096 252.42695,171.408557 240.554499,171.408557 L111.167148,171.408557 C99.295126,171.408557 91.8747374,158.795096 97.8109626,148.704498 L162.504638,38.7329166 Z" fill="#00DC82"/>
  </g>
</svg>

<svg width="256" height="172" xmlns="http://www.w3.org/2000/svg" preserveAspectRatio="xMidYMid"><path d="M112.973 9.25c-7.172-12.333-25.104-12.333-32.277 0L2.524 143.66c-7.172 12.333 1.794 27.749 16.14 27.749h61.024c-6.13-5.357-8.4-14.625-3.76-22.576L135.13 47.348 112.973 9.25Z" fill="#80EEC0"/><path d="M162.505 38.733c5.936-10.09 20.776-10.09 26.712 0l64.694 109.971c5.936 10.091-1.484 22.705-13.357 22.705H111.167c-11.872 0-19.292-12.614-13.356-22.705l64.694-109.971Z" fill="#00DC82"/></svg>
